X:280
T: Blackwater #2
S: "Where's the Crack v/1" (DJ Taylor)
Z: B.Black
L: 1/8
M: 2/4
R: polka
K: G
fe f(3g/f/e/ | fe dg | f(3f/g/e/ fe | d2 ef |
ga/g/ fg/e/ | ed Bd | ce/c/ BA |1 G2 Gg :|2 G2 GA ||
B(3d/B/A/ Bd|c(3e/d/B/ ce|d(3e/d/^c/ dg|f/g/a g2|
e/d/e/f/ ge|dB Bd| ce/c/ BA|1 G2 GA :|2 G2 Gg ||
